packages/merlin-www-assets/imports/gq/icons/cta-close.svg

<svg viewBox="0 0 18 18" xmlns="http://www.w3.org/2000/svg"><title>Close</title><path d="m16.58 18-7.58-7.59-7.58 7.59-1.42-1.42 7.59-7.58-7.59-7.58 1.42-1.42 7.58 7.59 7.58-7.59 1.42 1.42-7.59 7.58 7.59 7.58z"/></svg>

<svg viewBox="0 0 18 18"><title>Close</title><path d="M16.58 18L9 10.41 1.42 18 0 16.58 7.59 9 0 1.42 1.42 0 9 7.59 16.58 0 18 1.42 10.41 9 18 16.58z"/></svg>
